svgs/thin/file-circle-question.svg

<svg xmlns="http://www.w3.org/2000/svg" viewBox="0 0 576 512"><!--! Font Awesome Pro 6.4.0 by @fontawesome - https://fontawesome.com License - https://fontawesome.com/license (Commercial License) Copyright 2023 Fonticons, Inc. --><path d="M64 496H311.2c5.8 5.5 12 10.6 18.5 15.3c-3.2 .5-6.4 .7-9.7 .7H64c-35.3 0-64-28.7-64-64V64C0 28.7 28.7 0 64 0H204.1c12.7 0 24.9 5.1 33.9 14.1L369.9 145.9c9 9 14.1 21.2 14.1 33.9v18.7c-5.4 1.5-10.8 3.3-16 5.4V179.9c0-1.3-.1-2.6-.2-3.9H248c-22.1 0-40-17.9-40-40V16.2c-1.3-.2-2.6-.2-3.9-.2H64C37.5 16 16 37.5 16 64V448c0 26.5 21.5 48 48 48zM361.1 160c-.8-1-1.6-1.9-2.4-2.7L226.7 25.4c-.9-.9-1.8-1.7-2.7-2.4V136c0 13.3 10.7 24 24 24H361.1zM560 368a128 128 0 1 0 -256 0 128 128 0 1 0 256 0zm-272 0a144 144 0 1 1 288 0 144 144 0 1 1 -288 0zm144 48a16 16 0 1 1 0 32 16 16 0 1 1 0-32zm-64-98.1c0-20.9 17-37.9 37.9-37.9h43.3c25.9 0 46.9 21 46.9 46.9c0 18.4-10.8 35.2-27.6 42.7L440 382.4V392c0 4.4-3.6 8-8 8s-8-3.6-8-8V377.2c0-3.1 1.8-6 4.7-7.3L461.8 355c11.1-5 18.2-16 18.2-28.2c0-17.1-13.8-30.9-30.9-30.9H405.9c-12.1 0-21.9 9.8-21.9 21.9V320c0 4.4-3.6 8-8 8s-8-3.6-8-8v-2.1z"/></svg>

<svg xmlns="http://www.w3.org/2000/svg" viewBox="0 0 576 512"><!--! Font Awesome Pro 6.3.0 by @fontawesome - https://fontawesome.com License - https://fontawesome.com/license (Commercial License) Copyright 2023 Fonticons, Inc. --><path d="M64 496H311.2C317 501.5 323.2 506.6 329.7 511.3C326.6 511.7 323.3 512 320 512H64C28.65 512 0 483.3 0 448V64C0 28.65 28.65 0 64 0H204.1C216.8 0 229.1 5.057 238.1 14.06L369.9 145.9C378.9 154.9 384 167.2 384 179.9V198.6C378.6 200.2 373.2 201.1 368 203.1V179.9C368 178.6 367.9 177.3 367.8 176H248C225.9 176 208 158.1 208 136V16.24C206.7 16.08 205.4 16 204.1 16H64C37.49 16 16 37.49 16 64V448C16 474.5 37.49 496 64 496V496zM361.1 160C360.3 159 359.5 158.1 358.6 157.3L226.7 25.37C225.9 24.5 224.1 23.68 224 22.93V136C224 149.3 234.7 160 248 160H361.1zM416 432C416 423.2 423.2 416 432 416C440.8 416 448 423.2 448 432C448 440.8 440.8 448 432 448C423.2 448 416 440.8 416 432zM368 317.9C368 296.1 384.1 280 405.9 280H449.1C475 280 496 300.1 496 326.9C496 345.3 485.2 362 468.4 369.6L440 382.4V392C440 396.4 436.4 400 432 400C427.6 400 424 396.4 424 392V377.2C424 374.1 425.8 371.2 428.7 369.1L461.8 355C472.9 350 480 339 480 326.9C480 309.8 466.2 295.1 449.1 295.1H405.9C393.8 295.1 384 305.8 384 317.9V319.1C384 324.4 380.4 328 376 328C371.6 328 368 324.4 368 319.1L368 317.9zM576 368C576 447.5 511.5 512 432 512C352.5 512 288 447.5 288 368C288 288.5 352.5 224 432 224C511.5 224 576 288.5 576 368zM432 240C361.3 240 304 297.3 304 368C304 438.7 361.3 496 432 496C502.7 496 560 438.7 560 368C560 297.3 502.7 240 432 240z"/></svg>
